X:204
T:The Charleston Lake Reel
R:reel
C:Bruce Osborne - June 2002
Z:abc by bosborne@kos.net
M:2/4
L:1/8
K:Gmaj
D/F/|G/F/G/A/ B/A/B/c/|d/g/b/g/ dA/B/|c/A/F/A/ D/F/A/c/|B/G/D/B,/ G,D/F/|\
G/F/G/A/ B/A/B/c/|d/g/b/g/ dA/B/|c/A/F/A/ D/F/A/c/|B/G/G/F/ G:|
|:g/a/|b/g/d/g/ g/d/B/d/|d/B/G/d/ BA/B/|c/A/F/A/ D/F/A/c/|B/G/D/B,/ G,g/a/|\
b/g/d/g/ g/d/B/d/|d/B/G/d/ BA/B/|c/A/F/A/ D/F/A/c/|B/G/G/F/ G:|
